elementary-xfce/actions/24/go-jump.svg

<?xml version="1.0" encoding="UTF-8" standalone="no"?>
<svg xmlns:dc="http://purl.org/dc/elements/1.1/" xmlns:cc="http://creativecommons.org/ns#" xmlns:rdf="http://www.w3.org/1999/02/22-rdf-syntax-ns#" xmlns:svg="http://www.w3.org/2000/svg" xmlns="http://www.w3.org/2000/svg" xmlns:xlink="http://www.w3.org/1999/xlink" xmlns:sodipodi="http://sodipodi.sourceforge.net/DTD/sodipodi-0.dtd" xmlns:inkscape="http://www.inkscape.org/namespaces/inkscape" id="svg2519" height="24" width="24" version="1.0" sodipodi:docname="go-jump.svg" inkscape:version="0.92.3 (2405546, 2018-03-11)">
  <sodipodi:namedview pagecolor="#ffffff" bordercolor="#666666" borderopacity="1" objecttolerance="10" gridtolerance="10" guidetolerance="10" inkscape:pageopacity="0" inkscape:pageshadow="2" inkscape:window-width="1920" inkscape:window-height="962" id="namedview23" showgrid="false" inkscape:zoom="9.8333333" inkscape:cx="-5.1355933" inkscape:cy="10.372882" inkscape:window-x="0" inkscape:window-y="30" inkscape:window-maximized="1" inkscape:current-layer="svg2519">
    <inkscape:grid type="xygrid" id="grid831" />
  </sodipodi:namedview>
  <defs id="defs2521">
    <linearGradient gradientTransform="matrix(0.6134245,0,0,0.6095496,-2.7450495,-3.078874)" gradientUnits="userSpaceOnUse" xlink:href="#linearGradient2867-449-88-871-390-598-476-591-434-148-57-177" id="linearGradient2781" y2="39.502731" x2="25.667461" y1="6.6916194" x1="25.667461" />
    <linearGradient id="linearGradient5113">
      <stop offset="0" style="stop-color:#ffffff;stop-opacity:1" id="stop5115" />
      <stop offset="1" style="stop-color:#ffffff;stop-opacity:0" id="stop5117" />
    </linearGradient>
    <linearGradient gradientTransform="matrix(0.6162702,0,0,0.6095496,-36.496483,-4.9366536)" gradientUnits="userSpaceOnUse" xlink:href="#linearGradient5113" id="linearGradient2778" y2="58.047787" x2="105.32369" y1="2.047786" x1="58.748795" />
    <linearGradient id="linearGradient5105-262-943-861">
      <stop offset="0" style="stop-color:#000000;stop-opacity:1" id="stop2487" />
      <stop offset="1" style="stop-color:#000000;stop-opacity:0" id="stop2489" />
    </linearGradient>
    <radialGradient gradientTransform="matrix(1.4883719,0,0,0.40930306,-4.7441844,12.910458)" gradientUnits="userSpaceOnUse" xlink:href="#linearGradient5105-262-943-861" id="radialGradient2505" fy="19.03125" fx="11.25" r="8.0625" cy="19.03125" cx="11.25" />
    <linearGradient id="linearGradient2867-449-88-871-390-598-476-591-434-148-57-177">
      <stop offset="0" style="stop-color:#8cd5ff;stop-opacity:1" id="stop3750" />
      <stop offset="0.30000001" style="stop-color:#64baff;stop-opacity:1" id="stop3752" />
      <stop offset="0.75" style="stop-color:#3689e6;stop-opacity:1" id="stop3754" />
      <stop offset="1" style="stop-color:#0d52bf;stop-opacity:1" id="stop3756" />
    </linearGradient>
  </defs>
  <metadata id="metadata2524">
    <rdf:RDF>
      <cc:Work rdf:about="">
        <dc:format>image/svg+xml</dc:format>
        <dc:type rdf:resource="http://purl.org/dc/dcmitype/StillImage" />
        <dc:title />
      </cc:Work>
    </rdf:RDF>
  </metadata>
  <path inkscape:connector-curvature="0" d="M 23.325492,12.480171 15.942774,20.998334 8.5970595,12.480171 H 12.333913 C 13.589775,9.1362008 11.010941,7.0077575 8.0208825,7.0077575 c -2.124755,0 -5.007526,1.1611667 -5.981307,4.0482625 -0.506479,1.501637 -1.39857099,0.843811 -1.36409699,-0.461271 0.133439,-5.0359825 3.89087899,-9.0633985 9.50011849,-9.0633985 5.609239,0 9.776059,4.3269422 9.461317,10.9488205 z" id="path4972" style="display:inline;overflow:visible;visibility:visible;fill:url(#linearGradient2781);fill-opacity:1;fill-rule:nonzero;stroke:#0d52bf;stroke-width:1;stroke-linecap:butt;stroke-linejoin:round;stroke-miterlimit:4;stroke-dasharray:none;stroke-dashoffset:0;stroke-opacity:0.49803922;marker:none" />
  <path inkscape:connector-curvature="0" d="m 21.106683,13.470664 -5.163909,5.926634 -5.131595,-5.926634 h 2.191633 C 14.924711,9.2170148 12.104675,6.1298633 8.2965914,6.0688902 5.5539148,5.8553363 3.093848,7.851367 1.5972834,9.6580451 2.5509972,5.3805082 5.5166169,2.5262674 10.20727,2.5174471 c 4.739015,-0.00891 9.393222,3.8418854 8.345563,10.9532169 z" id="path4980" style="display:inline;overflow:visible;visibility:visible;opacity:0.35400008;fill:none;stroke:url(#linearGradient2778);stroke-width:1;stroke-linecap:round;stroke-linejoin:miter;stroke-miterlimit:4;stroke-dasharray:none;stroke-dashoffset:0;stroke-opacity:1;marker:none;enable-background:accumulate" />
  <path inkscape:connector-curvature="0" d="m 23.999998,20.699998 a 11.999998,3.300003 0 1 1 -23.99999696875,0 11.999998,3.300003 0 1 1 23.99999696875,0 z" id="path2638" style="display:inline;overflow:visible;visibility:visible;opacity:0.16292138;fill:url(#radialGradient2505);fill-opacity:1;fill-rule:nonzero;stroke:none;stroke-width:1.46732545;marker:none" />
</svg>

<?xml version="1.0" encoding="UTF-8" standalone="no"?>
<svg
   xmlns:dc="http://purl.org/dc/elements/1.1/"
   xmlns:cc="http://creativecommons.org/ns#"
   xmlns:rdf="http://www.w3.org/1999/02/22-rdf-syntax-ns#"
   xmlns:svg="http://www.w3.org/2000/svg"
   xmlns="http://www.w3.org/2000/svg"
   xmlns:xlink="http://www.w3.org/1999/xlink"
   width="24"
   height="24"
   id="svg2519"
   version="1.0">
  <defs
     id="defs2521">
    <linearGradient
       id="linearGradient3163">
      <stop
         style="stop-color:#729fcf;stop-opacity:1;"
         offset="0"
         id="stop3165" />
      <stop
         style="stop-color:#3465a4;stop-opacity:1;"
         offset="1"
         id="stop3167" />
    </linearGradient>
    <linearGradient
       xlink:href="#linearGradient3163"
       id="linearGradient2781"
       gradientUnits="userSpaceOnUse"
       gradientTransform="matrix(0.6134245,0,0,0.6095496,-2.7450494,-3.078874)"
       x1="25"
       y1="11.923377"
       x2="25"
       y2="40.32198" />
    <linearGradient
       id="linearGradient5113">
      <stop
         id="stop5115"
         offset="0"
         style="stop-color:white;stop-opacity:1;" />
      <stop
         id="stop5117"
         offset="1"
         style="stop-color:white;stop-opacity:0;" />
    </linearGradient>
    <linearGradient
       xlink:href="#linearGradient5113"
       id="linearGradient2778"
       gradientUnits="userSpaceOnUse"
       gradientTransform="matrix(0.6162702,0,0,0.6095496,-36.496483,-4.9366536)"
       x1="58.748795"
       y1="2.047786"
       x2="105.32369"
       y2="58.047787" />
    <linearGradient
       id="linearGradient5105-262-943-861">
      <stop
         style="stop-color:#0d0d0d;stop-opacity:1;"
         id="stop2487"
         offset="0" />
      <stop
         style="stop-color:#0d0d0d;stop-opacity:0;"
         id="stop2489"
         offset="1" />
    </linearGradient>
    <radialGradient
       r="8.0625"
       fy="19.03125"
       fx="11.25"
       cy="19.03125"
       cx="11.25"
       gradientTransform="matrix(1,0,0,0.282946,0,13.64644)"
       gradientUnits="userSpaceOnUse"
       id="radialGradient2505"
       xlink:href="#linearGradient5105-262-943-861" />
  </defs>
  <metadata
     id="metadata2524">
    <rdf:RDF>
      <cc:Work
         rdf:about="">
        <dc:format>image/svg+xml</dc:format>
        <dc:type
           rdf:resource="http://purl.org/dc/dcmitype/StillImage" />
      </cc:Work>
    </rdf:RDF>
  </metadata>
  <g
     id="layer1">
    <path
       id="path4972"
       d="M 23.325492,12.480171 L 15.942774,20.998334 L 8.5970589,12.480171 L 12.333912,12.480171 C 13.589775,9.1362008 11.01094,7.0077575 8.020882,7.0077575 C 5.8961268,7.0077575 3.0133567,8.1689242 2.0395751,11.05602 C 1.5330959,12.557657 0.64100464,11.899831 0.67547852,10.594749 C 0.80891733,5.5587665 4.5663574,1.5313505 10.175596,1.5313505 C 15.784836,1.5313505 19.951656,5.8582927 19.636914,12.480171 L 23.325492,12.480171 z"
       style="fill:url(#linearGradient2781);fill-opacity:1;fill-rule:nonzero;stroke:#204a87;stroke-width:0.99999958;stroke-linecap:butt;stroke-linejoin:miter;marker:none;marker-start:none;marker-mid:none;marker-end:none;stroke-miterlimit:4;stroke-dasharray:none;stroke-dashoffset:0;stroke-opacity:1;visibility:visible;display:inline;overflow:visible" />
    <path
       style="opacity:0.35400002;fill:none;fill-opacity:1;fill-rule:nonzero;stroke:url(#linearGradient2778);stroke-width:0.99999946;stroke-linecap:butt;stroke-linejoin:miter;marker:none;marker-start:none;marker-mid:none;marker-end:none;stroke-miterlimit:4;stroke-dasharray:none;stroke-dashoffset:0;stroke-opacity:1;visibility:visible;display:inline;overflow:visible;enable-background:accumulate"
       d="M 21.106683,13.470664 L 15.942774,19.397298 L 10.811179,13.470664 L 13.002812,13.470664 C 14.924711,9.2170148 12.104675,6.1298633 8.2965914,6.0688902 C 5.5539148,5.8553363 3.093848,7.851367 1.5972834,9.6580451 C 2.5509972,5.3805082 5.5166169,2.5262674 10.20727,2.5174471 C 14.946285,2.5085362 19.600492,6.3593325 18.552833,13.470664 L 21.106683,13.470664 z"
       id="path4980" />
    <path
       id="path2638"
       transform="matrix(1.4883719,0,0,1.4465766,-4.7441844,-6.8301629)"
       d="M 19.3125,19.03125 A 8.0625,2.28125 0 1 1 3.1875,19.03125 A 8.0625,2.28125 0 1 1 19.3125,19.03125 z"
       style="opacity:0.16292138;fill:url(#radialGradient2505);fill-opacity:1;fill-rule:nonzero;stroke:none;stroke-width:1;stroke-linecap:butt;stroke-linejoin:miter;marker:none;marker-start:none;marker-mid:none;marker-end:none;stroke-miterlimit:4;stroke-dasharray:none;stroke-dashoffset:0;stroke-opacity:1;visibility:visible;display:inline;overflow:visible" />
  </g>
</svg>
